X:12
T:Polska ur Petter Dufvas notbok (Ma6-12)
R:Polska
O:Verkelbäck, Småland
B:Petter Dufvas notbok
S:Petter Dufva
N:Smus Ma6 bild 15
Z:Till abc Jonas Brunskog
M:3/4
L:1/8
K:G
gg/f/ g2 d2|Bc/d/ e2 e2|de/d/ cd/c/ Bc/B/|AG/F/ G2 G,2:|
|:Bc/d/ A2 A2|ed/^c/ d2 D2|gf ef ga|ed/^c/ d2 D2|
de/f/ g2 g2|B=c/d/ e2 e2|de/d/ cd/c/ Bc/B/ AG/F/ G2 G,2:|

